X: 1
T:Johnny the Jumper
C:Trad
R:Jig
M:6/8
K:Am
Z:O'Neill's
L:1/8
eAA cBA|eAA fga|eAA c2e|dBG Bcd|eAA cBA|eAA B2A|GBG gfg|dBG Bcd:|
|: cBA aga|cBA Bcd|cBA gfg|dBG Bcd|cBA aga|cBA B2A|GBG gfg|dBG Bcd:|
